X: 175
T: The Mower
N:"Moderate"
B:O'Neill's 175
Z:Transcribed by henrik.norbeck@mailbox.swipnet.se
M:C
L:1/8
K:D
Ac|d2 d2 (df)(ec)|dcAG A2 (AB)|c2 c2 (cf)(ec)|(dcAF) G2 (AG)|
FEFG Afec|(dc)(AB) ceHdD|(DE)(FG) (AB)(GA)|F2 D2 D2||
FG|AFDF AFDF|AGFE D2 (EF)|(GECE) (GECE)|GFED C2 (DE)|
FEFG Afec|(dc)(AB) ceHdD|(DE)(FG) (AB)(GA)|F2 D2 D2||


